svg/logo/github_2_line.svg

<svg xmlns="http://www.w3.org/2000/svg" width="24" height="24" viewBox="0 0 24 24"><g fill="none"><path d="M24,0 L24,24 L0,24 L0,0 L24,0 Z M12.5935,23.2578 L12.5819,23.2595 L12.5109,23.295 L12.4919,23.2987 L12.4767,23.295 L12.4057,23.2595 C12.3958,23.2564 12.387,23.259 12.3821,23.2649 L12.378,23.2758 L12.3609,23.7031 L12.3659,23.7235 L12.3769,23.7357 L12.4805,23.8097 L12.4953,23.8136 L12.5071,23.8097 L12.6107,23.7357 L12.6233,23.7197 L12.6267,23.7031 L12.6096,23.2758 C12.6076,23.2657 12.601,23.2593 12.5935,23.2578 Z M12.8584,23.1453 L12.8445,23.1473 L12.6598,23.2397 L12.6499,23.2499 L12.6472,23.2611 L12.6651,23.6906 L12.6699,23.7034 L12.6784,23.7105 L12.8793,23.8032 C12.8914,23.8069 12.9022,23.803 12.9078,23.7952 L12.9118,23.7812 L12.8777,23.1665 C12.8753,23.1546 12.8674,23.147 12.8584,23.1453 Z M12.143,23.1473 C12.1332,23.1424 12.1222,23.1453 12.1156,23.1526 L12.1099,23.1665 L12.0758,23.7812 C12.0751,23.7927 12.0828,23.8019 12.0926,23.8046 L12.1083,23.8032 L12.3092,23.7105 L12.3186,23.7024 L12.3225,23.6906 L12.3404,23.2611 L12.3372,23.2485 L12.3278,23.2397 L12.143,23.1473 Z"/><path fill="#09244B" d="M12,2 C17.5228,2 22,6.47715 22,12 C22,17.5228 17.5228,22 12,22 C6.47715,22 2,17.5228 2,12 C2,6.47715 6.47715,2 12,2 Z M12,4 C7.58172,4 4,7.58172 4,12 C4,16.4183 7.58172,20 12,20 C16.4183,20 20,16.4183 20,12 C20,7.58172 16.4183,4 12,4 Z M9.24273,6.21216 C9.5837,6.32893 9.9979,6.50699 10.4125,6.76532 C10.9181,6.6496 11.4511,6.58818 11.9999,6.58818 C12.5482,6.58818 13.0806,6.64947 13.5857,6.76496 C14.0003,6.50675 14.4144,6.32876 14.7553,6.21204 L15.039916,6.1197788 C15.43302,6.0027132 15.87086,5.927478 16.2367,6.11047 C16.4067,6.19549 16.5491,6.32786 16.651,6.48765 C16.8589,6.81352 16.9338,7.23418 16.9797,7.61091 C17.0219,7.95741 17.0373,8.40974 16.9469,8.88068 C17.3942,9.51628 17.6666,10.2676 17.6666,11.0882 C17.6666,12.933 16.3517,14.3496 14.6621,15.0636 C14.7003,15.2108667 14.7265889,15.3629333 14.7398704,15.5186444 L14.7499,15.7652 L14.7213,18.5104 C14.7156,19.0627 14.2632,19.5057 13.711,19.5000115 C13.1587,19.4942 12.7157,19.0419 12.7214,18.4896 L12.7499,15.7507 C12.7489833,15.5727 12.6868861,15.4102556 12.5819532,15.2816537 L12.514,15.2087 C11.9099,14.6396 12.218,13.6476 13.007,13.4902 C14.7468,13.1431 15.6666,12.0444 15.6666,11.0882 C15.6666,10.6406 15.4852,10.1911 15.1097,9.78205 C14.8753,9.52666333 14.7907074,9.1710179 14.8790992,8.84144215 L14.9204,8.71932 C14.973,8.59151 15.0022,8.43391 15.0107,8.26328 C14.8022,8.36136 14.5866,8.48581 14.3897,8.63849 C14.1345,8.83639 13.7855,8.89988 13.4772,8.80493 C13.0278,8.66651 12.5289,8.58818 11.9999,8.58818 C11.4704,8.58818 10.971,8.66665 10.5213,8.80532 C10.2129,8.90042 9.86368,8.8369 9.60839,8.63884 C9.41139,8.486 9.19564,8.36144 8.98701,8.26328 C8.99337,8.3915375 9.01145813,8.51240375 9.04235438,8.61878703 L9.07756,8.72008 C9.2265,9.08135 9.15262,9.49573 8.88903,9.78323 C8.5143,10.1919 8.33325,10.641 8.33325,11.0882 C8.33325,12.0444 9.25303,13.1431 10.9928,13.4902 C11.7441333,13.6400095 12.0595483,14.5470073 11.5659534,15.1246583 L11.4858,15.2087 C11.3637167,15.3237833 11.2812861,15.4768528 11.2572005,15.6492162 L11.2499,15.7652 L11.2213,18.5104 C11.2156,19.0627 10.7632,19.5057 10.211,19.5000115 C9.65871,19.4942 9.21568,19.0419 9.22142,18.4896 L9.22617,18.0326 C8.83771,18.0318 8.49086,17.9631 8.17974,17.8311 C7.73184,17.641 7.42225,17.347 7.19467,17.0739 C7.15355,17.0245444 7.11047938,16.9588432 7.06536827,16.8855414 L6.92382358,16.6515796 C6.80061864,16.4521852 6.66409889,16.2599444 6.51286,16.2115 C6.1199,16.0805 5.9075,15.6558 6.03849,15.2628 C6.16947,14.8699 6.59421,14.6575 6.98717,14.7885 C7.42401,14.9341 7.70226,15.2473 7.88122,15.4789 C8.04168,15.6866 8.17888,15.9119 8.347,16.1136 C8.484,16.278 8.61191,16.385 8.76557,16.4502 C8.87184,16.4953 9.02211,16.5337 9.24177,16.5327 L9.24992,15.7491 C9.25041,15.5124 9.2809,15.2827 9.33772,15.0636 C7.64817,14.3496 6.33325,12.933 6.33325,11.0882 C6.33325,10.2686 6.60492,9.51819 7.05121,8.8831 C6.96036,8.41165 6.97568,7.95873 7.01789,7.61185 C7.06376,7.23487 7.13862,6.8139 7.34658,6.48779 C7.44852,6.32794 7.59089,6.19552 7.76095,6.11047 C8.126918,5.927438 8.5648412,6.0027292 8.95803992,6.11985464 L9.24273,6.21216 L9.24273,6.21216 Z"/></g></svg>

<svg xmlns="http://www.w3.org/2000/svg" width="24" height="24"><g fill="none"><path d="M24 0v24H0V0zM12.594 23.258l-.012.002-.071.035-.02.004-.014-.004-.071-.036c-.01-.003-.019 0-.024.006l-.004.01-.017.428.005.02.01.013.104.074.015.004.012-.004.104-.074.012-.016.004-.017-.017-.427c-.002-.01-.009-.017-.016-.018m.264-.113-.014.002-.184.093-.01.01-.003.011.018.43.005.012.008.008.201.092c.012.004.023 0 .029-.008l.004-.014-.034-.614c-.003-.012-.01-.02-.02-.022m-.715.002a.023.023 0 0 0-.027.006l-.006.014-.034.614c0 .012.007.02.017.024l.015-.002.201-.093.01-.008.003-.011.018-.43-.003-.012-.01-.01z"/><path fill="#09244B" d="M12 2c5.523 0 10 4.477 10 10s-4.477 10-10 10S2 17.523 2 12 6.477 2 12 2m0 2a8 8 0 1 0 0 16 8 8 0 0 0 0-16M9.243 6.212a5.77 5.77 0 0 1 1.17.553A7.12 7.12 0 0 1 12 6.588c.548 0 1.08.061 1.586.177a5.773 5.773 0 0 1 1.17-.553l.284-.092c.393-.117.83-.193 1.197-.01.17.085.312.218.414.378.208.326.283.746.329 1.123.042.346.057.799-.033 1.27.447.635.72 1.387.72 2.207 0 1.845-1.315 3.262-3.005 3.976.038.147.065.299.078.455l.01.246-.029 2.745a1 1 0 1 1-2-.02l.029-2.74a.743.743 0 0 0-.168-.468l-.068-.073c-.604-.57-.296-1.561.493-1.719 1.74-.347 2.66-1.446 2.66-2.402 0-.447-.182-.897-.557-1.306a1.006 1.006 0 0 1-.23-.94l.04-.123c.053-.127.082-.285.09-.456a3.336 3.336 0 0 0-.62.375 1.02 1.02 0 0 1-.913.167A5.028 5.028 0 0 0 12 8.588c-.53 0-1.029.079-1.479.217a1.02 1.02 0 0 1-.913-.166 3.336 3.336 0 0 0-.621-.376c.006.129.024.25.055.356l.036.101c.149.361.075.776-.189 1.063-.375.409-.556.858-.556 1.305 0 .956.92 2.055 2.66 2.402.751.15 1.067 1.057.573 1.635l-.08.084a.745.745 0 0 0-.229.44l-.007.116-.029 2.745a1 1 0 1 1-2-.02l.005-.457c-.388-.001-.735-.07-1.046-.202a2.595 2.595 0 0 1-.985-.757 1.689 1.689 0 0 1-.13-.188l-.141-.234c-.123-.2-.26-.392-.411-.44a.75.75 0 1 1 .474-1.423c.437.145.715.458.894.69.16.208.298.433.466.635.137.164.265.271.419.336.106.045.256.084.476.083l.008-.784c0-.237.03-.466.088-.685-1.69-.714-3.005-2.131-3.005-3.976 0-.82.272-1.57.718-2.205a4.156 4.156 0 0 1-.033-1.271c.046-.377.12-.798.329-1.124.102-.16.244-.292.414-.378.366-.183.804-.107 1.197.01z"/></g></svg>
